X:1
T:B001-  Adieu to the pleasures and follies of love
S:via BBBM, from 'Choice Ayres', 1676
Q:1/4=120
L:1/4
M:3/4
K:Dm
d|\
f3/2e/2d|(c/2d/2) (c/2A/2) (G/2F/2)|\
BGA|A2 ^c/2c/2|d3/2e/2f|(c/2A/2)(G/2F/2)(G/2A/2)|\
FDD|D2d|f3/2e/2d|A3/2G/2F|BGA|A2^c|\
d3/2e/2f|B3/2A/2(G/2A/2)|fdd|D2D|\
FEF|(G/2A/2) (G/2E/2) (D/2C/2)|FG3/2A/2|\
B2A|^c3/2d/2e|FE(d/2e/2)|^cAA|A2c|\
AFF|G3/2F/2E|F(e/2D/2)(G/2E/2)| F3/2G/2A|\
c2z/4(f/4e/4)d/4|c3/2d/2e|fdd|.d2||

